spreadsheet.svg

<svg xmlns="http://www.w3.org/2000/svg" viewBox="0 0 100 100" xmlns:xlink="http://www.w3.org/1999/xlink">
    <defs>
        <radialGradient id="h" gradientUnits="userSpaceOnUse" cy="47.401" cx="28.284" gradientTransform="scale(1.1642 .85894)" r="13.804">
            <stop offset="0"/>
            <stop stop-opacity="0" offset="1"/>
        </radialGradient>
        <radialGradient id="g" gradientUnits="userSpaceOnUse" cy="7.268" cx="8.144" gradientTransform="matrix(.97478 0 0 1.0341 3.162 .56)" r="38.159">
            <stop stop-color="#FFF" offset="0"/>
            <stop stop-color="#f8f8f8" offset="1"/>
        </radialGradient>
        <radialGradient id="f" gradientUnits="userSpaceOnUse" cy="35.737" cx="33.967" gradientTransform="matrix(.96384 0 0 1.0431 -.125 -.152)" r="86.708">
            <stop stop-color="#fafafa" offset="0"/>
            <stop stop-color="#BBB" offset="1"/>
        </radialGradient>
        <radialGradient id="e" gradientUnits="userSpaceOnUse" cy="3.756" cx="8.824" gradientTransform="matrix(.97165 0 0 1.0347 3.24 .496)" r="37.752">
            <stop stop-color="#a3a3a3" offset="0"/>
            <stop stop-color="#4c4c4c" offset="1"/>
        </radialGradient>
        <linearGradient id="i" y2="33.016" gradientUnits="userSpaceOnUse" x2="-14.36" y1="18.516" x1="-22.976">
            <stop stop-color="#ff7171" offset="0"/>
            <stop stop-color="#C00" offset="1"/>
        </linearGradient>
        <linearGradient id="j" y2="28.196" gradientUnits="userSpaceOnUse" x2="-9.735" y1="24.454" x1="-16.387">
            <stop stop-color="#5b8ccb" offset="0"/>
            <stop stop-color="#3465a4" offset="1"/>
        </linearGradient>
        <linearGradient id="k" y2="25.015" gradientUnits="userSpaceOnUse" x2="-20.822" y1="30.828" x1="-17.863">
            <stop stop-color="#73d216" offset="0"/>
            <stop stop-color="#d5f7b3" offset="1"/>
        </linearGradient>
        <linearGradient id="l" x1="-20.75" gradientUnits="userSpaceOnUse" x2="-19.5" y1="29" y2="18.75">
            <stop stop-color="#FFF" offset="0"/>
            <stop stop-color="#FFF" stop-opacity="0" offset="1"/>
        </linearGradient>
        <linearGradient id="b" x1="302.86" gradientUnits="userSpaceOnUse" x2="302.86" gradientTransform="matrix(2.7744 0 0 1.9697 -1892.2 -872.89)" y1="366.65" y2="609.51">
            <stop stop-opacity="0" offset="0"/>
            <stop offset=".5"/>
            <stop stop-opacity="0" offset="1"/>
        </linearGradient>
        <radialGradient id="c" cx="605.71" xlink:href="#a" gradientUnits="userSpaceOnUse" cy="486.65" r="117.14" gradientTransform="matrix(2.7744 0 0 1.9697 -1891.6 -872.89)"/>
        <linearGradient id="a">
            <stop offset="0"/>
            <stop stop-opacity="0" offset="1"/>
        </linearGradient>
        <radialGradient id="d" cx="605.71" xlink:href="#a" gradientUnits="userSpaceOnUse" cy="486.65" r="117.14" gradientTransform="matrix(-2.7744 0 0 1.9697 112.76 -872.89)"/>
    </defs>
    <g transform="matrix(2.296 0 0 2.2223 -5.68 -6.65)">
        <g color="#000">
            <path opacity=".402" fill="url(#b)" d="M-1559.3-150.7h1339.6v478.36h-1339.6z" transform="matrix(.02145 0 0 .02087 43.328 41.154)"/>
            <path opacity=".402" fill="url(#c)" d="M-219.62-150.68v478.33c142.87.9 345.4-107.17 345.4-239.2s-159.44-239.13-345.4-239.13z" transform="matrix(.02145 0 0 .02087 43.328 41.154)"/>
            <path opacity=".402" fill="url(#d)" d="M-1559.3-150.68v478.33c-142.87.9-345.4-107.17-345.4-239.2s159.44-239.13 345.4-239.13z" transform="matrix(.02145 0 0 .02087 43.328 41.154)"/>
        </g>
        <rect stroke-linejoin="round" display="block" rx="1.149" ry="1.149" height="40.997" width="34.997" stroke="url(#e)" stroke-linecap="round" y="3.501" x="6.502" fill="url(#f)" color="#000"/>
        <rect stroke-linejoin="round" display="block" rx=".149" ry=".149" height="38.996" width="32.996" stroke="url(#g)" stroke-linecap="round" y="4.502" x="7.503" fill="none" color="#000"/>
        <g fill-rule="evenodd">
            <path d="M10 6.002v35L20 41V11h18V6.003H10z" fill-opacity=".211" color="#000"/>
            <path d="M37.5 10.502h-27m27 5.998h-27m27 6h-27m27 6h-27m27 6h-27m27 6h-27m27.012-27H10.5" stroke-opacity=".193" fill-opacity=".158" stroke="#000" stroke-linecap="square"/>
        </g>
        <path d="M37.5 19.5h-27" stroke-opacity=".193" stroke="#000" stroke-linecap="square" fill="none"/>
        <path d="M37.5 25.5h-27m27 6h-27m27 6h-27" stroke-opacity=".193" fill-rule="evenodd" fill-opacity=".158" stroke="#000" stroke-linecap="square"/>
        <path d="M37.5 6.5v34m-6-34v34m-6-34v34m-6-34v34m-9-34v34" stroke="#000" stroke-linecap="square" stroke-opacity=".158" fill="none"/>
        <path d="M37.5 6.502h-27" stroke-opacity=".193" fill-rule="evenodd" fill-opacity=".158" stroke="#000" stroke-linecap="square"/>
        <path fill-rule="evenodd" transform="matrix(.86167 0 0 .85148 3.76 2.092)" fill="url(#h)" d="M49 40.714c0 6.548-7.195 11.857-16.07 11.857-8.877 0-16.072-5.308-16.072-11.856s7.195-11.857 16.07-11.857c8.877 0 16.072 5.31 16.072 11.857z"/>
        <path fill="#670000" d="M23.47 27.218c-2.568 1.698-3.982 4.005-3.982 6.498v2.07c0 2.49 1.414 4.797 3.983 6.496 2.428 1.604 5.634 2.487 9.03 2.487 3.395 0 6.602-.884 9.03-2.488 2.567-1.698 3.98-4.005 3.98-6.497v-2.07c0-2.492-1.414-4.8-3.98-6.497-2.428-1.603-5.634-2.487-9.03-2.487-3.396 0-6.603.885-9.03 2.488z"/>
        <path fill="#a40000" d="M43.976 33.58c-1.38-3.387-6.053-5.88-11.612-5.88-5.56 0-10.234 2.492-11.612 5.88h-.415v2.07c0 4.39 5.385 7.948 12.027 7.948 6.642 0 12.026-3.56 12.026-7.95v-2.07h-.414z"/>
        <path fill="url(#i)" d="M-6.61 24.454c0 4.39-5.384 7.95-12.026 7.95-6.643 0-12.027-3.56-12.027-7.95 0-4.39 5.385-7.95 12.027-7.95 6.642 0 12.026 3.56 12.026 7.95z" transform="translate(51 9.125)"/>
        <path fill="#204a87" d="M44.39 35.958l-.016-2.166c-1.304 4.5-4.236 6.407-7.923 7.34v1.995c3.99-1.004 7.563-3.29 7.94-7.17z"/>
        <path fill="url(#j)" d="M-6.61 24.454c-.276 5.08-6.558 7.396-7.962 7.484l-4.066-7.484H-6.61z" transform="translate(51 9.125)"/>
        <path fill="#4e9a06" d="M29.846 43.423v-2.07c2.263.295 4.34.347 6.583-.213l.02 1.988c-1.878.616-4.818.645-6.604.296z"/>
        <path fill="url(#k)" d="M-18.637 24.454l4.066 7.483c-2.49.95-6.584.292-6.584.292l2.517-7.776z" transform="translate(51 9.125)"/>
        <path opacity=".311" d="M-6.875 24.375c0 4.28-5.26 7.75-11.75 7.75s-11.75-3.47-11.75-7.75 5.26-7.75 11.75-7.75 11.75 3.47 11.75 7.75z" transform="translate(50.62 9.622) scale(.9796)" display="block" stroke="url(#l)" stroke-width="1.021" fill="none" color="#000"/>
        <path opacity=".133" d="M-6.875 24.375c0 4.28-5.26 7.75-11.75 7.75s-11.75-3.47-11.75-7.75 5.26-7.75 11.75-7.75 11.75 3.47 11.75 7.75z" transform="translate(50.62 11.622) scale(.9796)" stroke="url(#l)" stroke-width="1.021" display="block" fill="none" color="#000"/>
    </g>
</svg>

<svg xmlns="http://www.w3.org/2000/svg" viewBox="0 0 100 100" xmlns:xlink="http://www.w3.org/1999/xlink"><defs><radialGradient id="h" gradientUnits="userSpaceOnUse" cy="47.401" cx="28.284" gradientTransform="scale(1.1642 .85894)" r="13.804"><stop offset="0"/><stop stop-opacity="0" offset="1"/></radialGradient><radialGradient id="g" gradientUnits="userSpaceOnUse" cy="7.268" cx="8.144" gradientTransform="matrix(.97478 0 0 1.0341 3.162 .56)" r="38.159"><stop stop-color="#FFF" offset="0"/><stop stop-color="#f8f8f8" offset="1"/></radialGradient><radialGradient id="f" gradientUnits="userSpaceOnUse" cy="35.737" cx="33.967" gradientTransform="matrix(.96384 0 0 1.0431 -.125 -.152)" r="86.708"><stop stop-color="#fafafa" offset="0"/><stop stop-color="#BBB" offset="1"/></radialGradient><radialGradient id="e" gradientUnits="userSpaceOnUse" cy="3.756" cx="8.824" gradientTransform="matrix(.97165 0 0 1.0347 3.24 .496)" r="37.752"><stop stop-color="#a3a3a3" offset="0"/><stop stop-color="#4c4c4c" offset="1"/></radialGradient><linearGradient id="i" y2="33.016" gradientUnits="userSpaceOnUse" x2="-14.36" y1="18.516" x1="-22.976"><stop stop-color="#ff7171" offset="0"/><stop stop-color="#C00" offset="1"/></linearGradient><linearGradient id="j" y2="28.196" gradientUnits="userSpaceOnUse" x2="-9.735" y1="24.454" x1="-16.387"><stop stop-color="#5b8ccb" offset="0"/><stop stop-color="#3465a4" offset="1"/></linearGradient><linearGradient id="k" y2="25.015" gradientUnits="userSpaceOnUse" x2="-20.822" y1="30.828" x1="-17.863"><stop stop-color="#73d216" offset="0"/><stop stop-color="#d5f7b3" offset="1"/></linearGradient><linearGradient id="l" x1="-20.75" gradientUnits="userSpaceOnUse" x2="-19.5" y1="29" y2="18.75"><stop stop-color="#FFF" offset="0"/><stop stop-color="#FFF" stop-opacity="0" offset="1"/></linearGradient><linearGradient id="b" x1="302.86" gradientUnits="userSpaceOnUse" x2="302.86" gradientTransform="matrix(2.7744 0 0 1.9697 -1892.2 -872.89)" y1="366.65" y2="609.51"><stop stop-opacity="0" offset="0"/><stop offset=".5"/><stop stop-opacity="0" offset="1"/></linearGradient><radialGradient id="c" cx="605.71" xlink:href="#a" gradientUnits="userSpaceOnUse" cy="486.65" r="117.14" gradientTransform="matrix(2.7744 0 0 1.9697 -1891.6 -872.89)"/><linearGradient id="a"><stop offset="0"/><stop stop-opacity="0" offset="1"/></linearGradient><radialGradient id="d" cx="605.71" xlink:href="#a" gradientUnits="userSpaceOnUse" cy="486.65" r="117.14" gradientTransform="matrix(-2.7744 0 0 1.9697 112.76 -872.89)"/></defs><g transform="matrix(2.296 0 0 2.2223 -5.68 -6.65)"><g color="#000"><path opacity=".402" fill="url(#b)" d="M-1559.3-150.7h1339.6v478.36h-1339.6z" transform="matrix(.02145 0 0 .02087 43.328 41.154)"/><path opacity=".402" fill="url(#c)" d="M-219.62-150.68v478.33c142.87.9 345.4-107.17 345.4-239.2s-159.44-239.13-345.4-239.13z" transform="matrix(.02145 0 0 .02087 43.328 41.154)"/><path opacity=".402" fill="url(#d)" d="M-1559.3-150.68v478.33c-142.87.9-345.4-107.17-345.4-239.2s159.44-239.13 345.4-239.13z" transform="matrix(.02145 0 0 .02087 43.328 41.154)"/></g><rect stroke-linejoin="round" display="block" rx="1.149" ry="1.149" height="40.997" width="34.997" stroke="url(#e)" stroke-linecap="round" y="3.501" x="6.502" fill="url(#f)" color="#000"/><rect stroke-linejoin="round" display="block" rx=".149" ry=".149" height="38.996" width="32.996" stroke="url(#g)" stroke-linecap="round" y="4.502" x="7.503" fill="none" color="#000"/><g fill-rule="evenodd"><path d="M10 6.002v35L20 41V11h18V6.003H10z" fill-opacity=".211" color="#000"/><g stroke-opacity=".193" fill-opacity=".158" stroke="#000" stroke-linecap="square"><path d="M37.5 10.502h-27M37.5 16.5h-27M37.5 22.5h-27M37.5 28.5h-27M37.5 34.5h-27M37.5 40.5h-27M37.512 13.5H10.5"/></g></g><path d="M37.5 19.5h-27" stroke-opacity=".193" stroke="#000" stroke-linecap="square" fill="none"/><g stroke-opacity=".193" fill-rule="evenodd" fill-opacity=".158" stroke="#000" stroke-linecap="square"><path d="M37.5 25.5h-27M37.5 31.5h-27M37.5 37.5h-27"/></g><g stroke="#000" stroke-linecap="square" stroke-opacity=".158" fill="none"><path d="M37.5 6.5v34M31.5 6.5v34M25.5 6.5v34M19.5 6.5v34M10.5 6.5v34"/></g><path d="M37.5 6.502h-27" stroke-opacity=".193" fill-rule="evenodd" fill-opacity=".158" stroke="#000" stroke-linecap="square"/><path fill-rule="evenodd" transform="matrix(.86167 0 0 .85148 3.76 2.092)" fill="url(#h)" d="M49 40.714c0 6.548-7.195 11.857-16.07 11.857-8.877 0-16.072-5.308-16.072-11.856s7.195-11.857 16.07-11.857c8.877 0 16.072 5.31 16.072 11.857z"/><path fill="#670000" d="M23.47 27.218c-2.568 1.698-3.982 4.005-3.982 6.498v2.07c0 2.49 1.414 4.797 3.983 6.496 2.428 1.604 5.634 2.487 9.03 2.487 3.395 0 6.602-.884 9.03-2.488 2.567-1.698 3.98-4.005 3.98-6.497v-2.07c0-2.492-1.414-4.8-3.98-6.497-2.428-1.603-5.634-2.487-9.03-2.487-3.396 0-6.603.885-9.03 2.488z"/><path fill="#a40000" d="M43.976 33.58c-1.38-3.387-6.053-5.88-11.612-5.88-5.56 0-10.234 2.492-11.612 5.88h-.415v2.07c0 4.39 5.385 7.948 12.027 7.948 6.642 0 12.026-3.56 12.026-7.95v-2.07h-.414z"/><path fill="url(#i)" d="M-6.61 24.454c0 4.39-5.384 7.95-12.026 7.95-6.643 0-12.027-3.56-12.027-7.95 0-4.39 5.385-7.95 12.027-7.95 6.642 0 12.026 3.56 12.026 7.95z" transform="translate(51 9.125)"/><path fill="#204a87" d="M44.39 35.958l-.016-2.166c-1.304 4.5-4.236 6.407-7.923 7.34v1.995c3.99-1.004 7.563-3.29 7.94-7.17z"/><path fill="url(#j)" d="M-6.61 24.454c-.276 5.08-6.558 7.396-7.962 7.484l-4.066-7.484H-6.61z" transform="translate(51 9.125)"/><path fill="#4e9a06" d="M29.846 43.423v-2.07c2.263.295 4.34.347 6.583-.213l.02 1.988c-1.878.616-4.818.645-6.604.296z"/><path fill="url(#k)" d="M-18.637 24.454l4.066 7.483c-2.49.95-6.584.292-6.584.292l2.517-7.776z" transform="translate(51 9.125)"/><path opacity=".311" d="M-6.875 24.375c0 4.28-5.26 7.75-11.75 7.75s-11.75-3.47-11.75-7.75 5.26-7.75 11.75-7.75 11.75 3.47 11.75 7.75z" transform="translate(50.62 9.622) scale(.9796)" display="block" stroke="url(#l)" stroke-width="1.021" fill="none" color="#000"/><path opacity=".133" d="M-6.875 24.375c0 4.28-5.26 7.75-11.75 7.75s-11.75-3.47-11.75-7.75 5.26-7.75 11.75-7.75 11.75 3.47 11.75 7.75z" transform="translate(50.62 11.622) scale(.9796)" stroke="url(#l)" stroke-width="1.021" display="block" fill="none" color="#000"/></g></svg>
